src/assets/icons/editBatch.svg

<svg width="76" height="79" viewBox="0 0 76 79" fill="none" xmlns="http://www.w3.org/2000/svg">
<g clip-path="url(#clip0_1241_1484)">
<path d="M63.461 0.229466C62.8969 0.352965 61.7835 0.769775 61.0115 1.17115L59.6161 1.88127L41.1487 20.9619C31.0095 31.4594 22.5329 40.2896 22.3251 40.5983C21.85 41.3239 16.3276 58.5212 16.3276 59.293C16.3276 60.8213 17.5004 62.0409 18.9552 62.0409C19.2967 62.0409 22.9931 60.8368 28.0553 59.0769L36.5913 56.1284L54.45 37.6652C64.2626 27.5074 72.665 18.7852 73.0955 18.2758C76.213 14.6017 76.8513 10.2329 74.8621 6.00306C74.2979 4.7835 73.9714 4.32038 72.9025 3.20889C71.8337 2.08196 71.4031 1.75777 70.2155 1.17115C67.9442 0.0442167 65.7768 -0.264532 63.461 0.229466ZM67.6919 6.17287C68.6716 6.65143 69.5178 7.50049 70.0374 8.55023C70.3937 9.22948 70.4382 9.50735 70.4382 10.7887C70.4382 12.0391 70.3788 12.3787 70.0819 13.0271C69.785 13.6446 66.0144 17.6429 51.7779 32.4782L33.8449 51.1575L28.6194 52.9637C25.7543 53.9671 23.3791 54.7544 23.3494 54.739C23.3345 54.7081 24.0917 52.2536 25.0269 49.2896L26.7489 43.9019L44.1474 25.7938C53.7077 15.8367 61.8577 7.39243 62.2437 7.05281C63.847 5.648 65.9253 5.30838 67.6919 6.17287Z" fill="black" fill-opacity="0.7"/>
<path d="M5.86174 5.98762C3.8428 6.57425 1.98716 8.1643 1.00738 10.1094C-0.0614723 12.2243 -0.00209174 9.98591 -0.00209174 42.2192C-0.00209174 62.2725 0.0424437 71.5349 0.161205 72.1678C0.725321 75.3943 3.56074 78.3119 6.67823 78.8677C7.3611 78.9912 15.1103 79.0221 33.1768 78.9912L58.7105 78.9449L59.7051 78.5435C62.4515 77.432 64.3813 75.1318 64.9455 72.2605C65.1384 71.3033 65.1681 69.034 65.1384 56.2673L65.0939 41.4165L64.7376 40.8608C63.9954 39.7493 62.7038 39.2553 61.5608 39.6412C60.8927 39.8728 60.0466 40.8453 59.8387 41.6172C59.7348 42.0031 59.6754 46.9431 59.6754 56.6687C59.6754 66.5023 59.6309 71.2725 59.5121 71.5658C59.3043 72.1524 58.666 72.8471 58.087 73.0941C57.6862 73.2793 53.485 73.3102 32.4939 73.3102H7.37595L6.7673 72.9397C6.42586 72.739 6.0102 72.2913 5.81721 71.9517L5.49061 71.3342L5.52031 42.1729L5.56484 12.9962L5.9805 12.4405C6.85637 11.2363 5.32732 11.3444 24.4924 11.2518C37.1405 11.19 41.7128 11.1283 41.9355 10.9893C42.3214 10.7578 42.9598 10.0322 43.1973 9.56911C43.7317 8.48849 43.1973 6.74406 42.1136 6.08025L41.4604 5.69431L24.1064 5.70975C8.13305 5.70975 6.67823 5.74063 5.86174 5.98762Z" fill="black" fill-opacity="0.7"/>
</g>
<defs>
<clipPath id="clip0_1241_1484">
<rect width="76" height="79" fill="white"/>
</clipPath>
</defs>
</svg>

<svg xmlns="http://www.w3.org/2000/svg" width="76" height="79" fill="none"><g fill="#000" fill-opacity=".7" clip-path="url(#a)"><path d="M63.461.23c-.564.123-1.678.54-2.45.941l-1.395.71-18.467 19.08C31.009 31.46 22.533 40.29 22.325 40.599c-.475.726-5.997 17.923-5.997 18.695 0 1.528 1.172 2.748 2.627 2.748.342 0 4.038-1.204 9.1-2.964l8.536-2.949L54.45 37.665c9.813-10.158 18.215-18.88 18.645-19.39 3.118-3.673 3.756-8.042 1.767-12.272-.564-1.22-.89-1.683-1.96-2.794-1.068-1.127-1.499-1.451-2.686-2.038C67.944.044 65.776-.265 63.46.23Zm4.23 5.943c.98.478 1.827 1.327 2.346 2.377.357.68.401.957.401 2.239 0 1.25-.06 1.59-.356 2.238-.297.618-4.068 4.616-18.304 19.451l-17.933 18.68-5.226 1.806c-2.865 1.003-5.24 1.79-5.27 1.775-.015-.03.743-2.485 1.678-5.45l1.722-5.387 17.398-18.108c9.56-9.957 17.71-18.402 18.097-18.741 1.603-1.405 3.681-1.745 5.448-.88Z"/><path d="M5.862 5.988c-2.02.586-3.875 2.176-4.855 4.121-1.068 2.115-1.01-.123-1.01 32.11 0 20.053.045 29.316.164 29.949.564 3.226 3.4 6.144 6.517 6.7.683.123 8.432.154 26.499.123l25.534-.046.994-.401c2.747-1.112 4.676-3.412 5.24-6.284.193-.957.223-3.226.193-15.993l-.044-14.85-.356-.556c-.743-1.112-2.034-1.606-3.177-1.22-.668.232-1.514 1.204-1.722 1.976-.104.386-.164 5.326-.164 15.052 0 9.833-.044 14.603-.163 14.897-.208.586-.846 1.281-1.425 1.528-.4.185-4.602.216-25.593.216H7.376l-.609-.37c-.341-.201-.757-.649-.95-.988l-.326-.618.03-29.161.044-29.177.415-.556c.876-1.204-.653-1.096 18.512-1.188 12.649-.062 17.22-.124 17.443-.263.386-.231 1.025-.957 1.262-1.42.535-1.08 0-2.825-1.083-3.489l-.654-.386-17.354.016c-15.973 0-17.428.03-18.244.278Z"/></g><defs><clipPath id="a"><path fill="#fff" d="M0 0h76v79H0z"/></clipPath></defs></svg>
